X:42
T:La Meunire Et Le Chasseur
M:5/4
L:1/8
N:Assez vite
N:La Bourre 4th edition 1929, page 52
Z:Steve Mansfield www.lesession.co.uk May 2012
K:F
F3 G | A A A A A A G3 A |
B B A G A A F3 G |  A A A A A A G3 A |
B G E G F2 A3 B | c c c d B B G3 A |
B B B c A A F3 G |
A A A A A2 G3 A | B G E G F6 |]
<end>
<start>
